src/assets/animalImage/img/fish.svg

<?xml version="1.0" encoding="UTF-8" standalone="no"?><!DOCTYPE svg PUBLIC "-//W3C//DTD SVG 1.1//EN" "http://www.w3.org/Graphics/SVG/1.1/DTD/svg11.dtd"><svg width="100%" height="100%" viewBox="0 0 402 272" version="1.1" xmlns="http://www.w3.org/2000/svg" xmlns:xlink="http://www.w3.org/1999/xlink" xml:space="preserve" style="fill-rule:evenodd;clip-rule:evenodd;stroke-linejoin:round;stroke-miterlimit:1.41421;"><path d="M298.15,134.206c-10.693,0 -19.368,-8.678 -19.368,-19.369c0,-10.69 8.675,-19.362 19.368,-19.362c10.694,0 19.36,8.672 19.36,19.362c0,10.691 -8.666,19.369 -19.36,19.369Zm75.582,32.216c10.609,-9.778 25.856,-21.731 21.318,-28.766c-131.928,-204.05 -277.487,-86.031 -319.737,-44.203c-6.928,6.859 -15.525,5.703 -21.331,-2.141c-10.86,-14.662 -28.188,-33.796 -39.832,-46.25c-6.659,-7.124 -14.212,-5.046 -14.15,4.701c0.197,29.653 14.872,66.852 24.247,87.634c4.013,8.881 2.925,22.344 -0.887,31.322c-9.294,21.85 -15.556,54.162 -18.797,73.95c-1.569,9.625 4.197,13.394 11.606,7.047c10.484,-8.994 24.369,-21.985 34.319,-31.469c7.072,-6.716 16.266,-5.088 24.009,0.831c4.95,3.775 10.828,7.606 16.157,10.872c8.325,5.097 27.796,12.272 23.381,20.444c-4.416,8.162 -4.469,10.297 4.94,7.728c9.4,-2.588 24.25,-2.206 33.525,0.787c114.969,37.038 192.575,-16.309 221.466,-41.918c7.297,-6.475 14.463,-12.728 16.831,-13.116c1.107,-0.184 2.503,-0.416 4.272,-0.709c4.76,-0.794 -5.072,-7.769 -14.706,-13.797c-8.294,-5.181 -13.797,-16.325 -6.631,-22.947Z" style="fill:#8ed3d6;fill-rule:nonzero;"/><path d="M108.991,257.603l14.322,-36.244l47.222,18.122l-61.544,28.978" style="fill:#4d9a9a;fill-rule:nonzero;"/><path d="M266.004,24.041c0,0 -142.607,110.328 -14.566,246.459c0,0 116.94,-17.228 150.053,-72.319l-30.975,-25.503l30.975,-30.022c0,0 -22.869,-61.153 -135.487,-118.615Z" style="fill:#f1d9dc;fill-rule:nonzero;"/><path d="M313.213,124.162c0,9.416 -7.628,17.038 -17.028,17.038c-9.4,0 -17.032,-7.622 -17.032,-17.038c0,-9.4 7.632,-17.028 17.032,-17.028c9.4,0 17.028,7.628 17.028,17.028Z" style="fill:#fff;fill-rule:nonzero;"/><path d="M306.6,134.206c0,4.672 -3.784,8.45 -8.45,8.45c-4.665,0 -8.45,-3.778 -8.45,-8.45c0,-4.669 3.785,-8.45 8.45,-8.45c4.666,0 8.45,3.781 8.45,8.45Z" style="fill:#403e39;fill-rule:nonzero;"/><path d="M250.129,23.509c-30.225,-3.043 -71.144,8.725 -100.938,16.738c-12.331,3.306 -12.056,-9.891 -13.556,-21.95c-1.016,-8.128 -3.716,-15.953 -10.122,-18.297c-0.028,-0.006 95.341,11 140.491,24.041c12.243,3.547 -3.194,0.75 -15.875,-0.532Z" style="fill:#4d9a9a;fill-rule:nonzero;"/></svg>

<?xml version="1.0" encoding="UTF-8" standalone="no"?>
<!DOCTYPE svg PUBLIC "-//W3C//DTD SVG 1.1//EN" "http://www.w3.org/Graphics/SVG/1.1/DTD/svg11.dtd">
<svg width="100%" height="100%" viewBox="0 0 402 402" version="1.1" xmlns="http://www.w3.org/2000/svg" xmlns:xlink="http://www.w3.org/1999/xlink" xml:space="preserve" xmlns:serif="http://www.serif.com/" style="fill-rule:evenodd;clip-rule:evenodd;stroke-linejoin:round;stroke-miterlimit:1.41421;">
    <g transform="matrix(1,0,0,1,0,65)">
        <path d="M298.15,134.206C287.457,134.206 278.782,125.528 278.782,114.837C278.782,104.147 287.457,95.475 298.15,95.475C308.844,95.475 317.51,104.147 317.51,114.837C317.51,125.528 308.844,134.206 298.15,134.206ZM373.732,166.422C384.341,156.644 399.588,144.691 395.05,137.656C263.122,-66.394 117.563,51.625 75.313,93.453C68.385,100.312 59.788,99.156 53.982,91.312C43.122,76.65 25.794,57.516 14.15,45.062C7.491,37.938 -0.062,40.016 0,49.763C0.197,79.416 14.872,116.615 24.247,137.397C28.26,146.278 27.172,159.741 23.36,168.719C14.066,190.569 7.804,222.881 4.563,242.669C2.994,252.294 8.76,256.063 16.169,249.716C26.653,240.722 40.538,227.731 50.488,218.247C57.56,211.531 66.754,213.159 74.497,219.078C79.447,222.853 85.325,226.684 90.654,229.95C98.979,235.047 118.45,242.222 114.035,250.394C109.619,258.556 109.566,260.691 118.975,258.122C128.375,255.534 143.225,255.916 152.5,258.909C267.469,295.947 345.075,242.6 373.966,216.991C381.263,210.516 388.429,204.263 390.797,203.875C391.904,203.691 393.3,203.459 395.069,203.166C399.829,202.372 389.997,195.397 380.363,189.369C372.069,184.188 366.566,173.044 373.732,166.422Z" style="fill:rgb(142,211,214);fill-rule:nonzero;"/>
    </g>
    <g transform="matrix(1,0,0,1,0,65)">
        <path d="M108.991,257.603L123.313,221.359L170.535,239.481L108.991,268.459" style="fill:rgb(77,154,154);fill-rule:nonzero;"/>
    </g>
    <g transform="matrix(1,0,0,1,0,65)">
        <path d="M266.004,24.041C266.004,24.041 123.397,134.369 251.438,270.5C251.438,270.5 368.378,253.272 401.491,198.181L370.516,172.678L401.491,142.656C401.491,142.656 378.622,81.503 266.004,24.041Z" style="fill:rgb(241,217,220);fill-rule:nonzero;"/>
    </g>
    <g transform="matrix(1,0,0,1,0,65)">
        <path d="M313.213,124.162C313.213,133.578 305.585,141.2 296.185,141.2C286.785,141.2 279.153,133.578 279.153,124.162C279.153,114.762 286.785,107.134 296.185,107.134C305.585,107.134 313.213,114.762 313.213,124.162Z" style="fill:white;fill-rule:nonzero;"/>
    </g>
    <g transform="matrix(1,0,0,1,0,65)">
        <path d="M306.6,134.206C306.6,138.878 302.816,142.656 298.15,142.656C293.485,142.656 289.7,138.878 289.7,134.206C289.7,129.537 293.485,125.756 298.15,125.756C302.816,125.756 306.6,129.537 306.6,134.206Z" style="fill:rgb(64,62,57);fill-rule:nonzero;"/>
    </g>
    <g transform="matrix(1,0,0,1,0,65)">
        <path d="M250.129,23.509C219.904,20.466 178.985,32.234 149.191,40.247C136.86,43.553 137.135,30.356 135.635,18.297C134.619,10.169 131.919,2.344 125.513,0C125.485,-0.006 220.854,11 266.004,24.041C278.247,27.588 262.81,24.791 250.129,23.509Z" style="fill:rgb(77,154,154);fill-rule:nonzero;"/>
    </g>
</svg>
